img/cheese.svg-desible.svg

<svg width="41" height="35" viewBox="0 0 41 35" fill="none" xmlns="http://www.w3.org/2000/svg">
<path d="M17.6952 24.7793C15.718 24.7793 14.1094 26.2227 14.1094 27.9967C14.1094 29.7709 15.718 31.2143 17.6952 31.2143C19.6721 31.2143 21.2807 29.7709 21.2807 27.9967C21.2807 26.2227 19.6721 24.7793 17.6952 24.7793ZM17.6952 29.8123C16.5795 29.8123 15.6719 28.9979 15.6719 27.9967C15.6719 26.9958 16.5795 26.1814 17.6952 26.1814C18.8106 26.1814 19.7182 26.9958 19.7182 27.9967C19.7182 28.9979 18.8106 29.8123 17.6952 29.8123Z" fill="#A5A5A5"/>
<path d="M31.8407 22.3481C30.3374 22.3481 29.1143 23.4454 29.1143 24.7944C29.1143 26.1433 30.3374 27.2406 31.8407 27.2406C33.344 27.2406 34.5668 26.1433 34.5668 24.7944C34.5668 23.4454 33.344 22.3481 31.8407 22.3481ZM31.8407 25.8388C31.1989 25.8388 30.6768 25.3703 30.6768 24.7944C30.6768 24.2185 31.1989 23.7502 31.8407 23.7502C32.4822 23.7502 33.0043 24.2188 33.0043 24.7944C33.0043 25.3703 32.4822 25.8388 31.8407 25.8388Z" fill="#A5A5A5"/>
<path d="M9.05499 18.7119C7.64386 18.7119 6.49609 19.7421 6.49609 21.0084C6.49609 22.2743 7.64386 23.3045 9.05499 23.3045C10.4658 23.3045 11.6139 22.2743 11.6139 21.0084C11.6139 19.7421 10.4658 18.7119 9.05499 18.7119ZM9.05499 21.9025C8.50537 21.9025 8.05859 21.5013 8.05859 21.0084C8.05859 20.5154 8.50537 20.1143 9.05499 20.1143C9.60461 20.1143 10.0514 20.5154 10.0514 21.0084C10.0514 21.5013 9.60431 21.9025 9.05499 21.9025Z" fill="#A5A5A5"/>
<path d="M30.4604 8.78127C31.8892 8.78127 33.0516 7.7382 33.0516 6.45607C33.0516 5.17393 31.8892 4.13086 30.4604 4.13086C29.0316 4.13086 27.8691 5.17393 27.8691 6.45607C27.8691 7.7382 29.0316 8.78127 30.4604 8.78127ZM30.4604 5.53294C31.0277 5.53294 31.4891 5.94699 31.4891 6.45607C31.4891 6.96514 31.0277 7.37919 30.4604 7.37919C29.8931 7.37919 29.4316 6.96514 29.4316 6.45607C29.4316 5.94699 29.8931 5.53294 30.4604 5.53294Z" fill="#A5A5A5"/>
<path d="M40.4557 14.8993L40.3737 14.3771C39.6217 9.58649 37.3689 5.12174 33.8582 1.46484C32.3854 -0.0692355 29.9016 -0.447961 27.9524 0.564713L17.3393 6.07828C17.0613 6.22287 16.9099 6.5052 16.9581 6.79027C17.0561 7.36836 16.8489 7.93631 16.3893 8.34872C15.6602 9.00293 14.5033 9.06153 13.6989 8.48509C13.4474 8.3049 13.0983 8.28135 12.8199 8.42622L2.76105 13.652C2.09637 13.997 1.55225 14.4842 1.16406 15.0557C1.04199 15.1584 0.957153 15.2956 0.928467 15.4503C0.651367 15.9813 0.5 16.5676 0.5 17.1706V25.4804C0.5 25.8676 0.849731 26.1814 1.28125 26.1814C2.39667 26.1814 3.30426 26.9958 3.30426 27.9967C3.30426 28.9979 2.39667 29.8123 1.28125 29.8123C0.849731 29.8123 0.5 30.1261 0.5 30.5133V30.934C0.5 33.1759 2.53278 35 5.03125 35H27.6567C28.0882 35 28.4379 34.6862 28.4379 34.299C28.4379 33.2978 29.3455 32.4834 30.4609 32.4834C31.5764 32.4834 32.4839 33.2978 32.4839 34.299C32.4839 34.6862 32.8337 35 33.2652 35H35.9688C38.4672 35 40.5 33.1759 40.5 30.934V15.4665C40.5 15.2772 40.485 15.0866 40.4557 14.8993ZM35.9688 33.5979H33.961C33.6033 32.1597 32.1696 31.0813 30.4609 31.0813C28.7523 31.0813 27.3185 32.1597 26.9609 33.5979H5.03125C3.46997 33.5979 2.1861 32.5108 2.07104 31.1355C3.66925 30.8118 4.86707 29.5275 4.86707 27.9967C4.86707 26.4635 3.66528 25.177 2.0625 24.8563V17.1706C2.0625 16.8584 2.12537 16.5536 2.24072 16.2677H7.5575C7.98871 16.2677 8.33875 15.9539 8.33875 15.5667C8.33875 15.1795 7.98871 14.8656 7.5575 14.8656H3.54321C3.54321 14.8654 3.54352 14.8654 3.54382 14.8654L13.1801 9.85924C14.5625 10.5712 16.3337 10.3812 17.494 9.34003C18.1657 8.7373 18.5396 7.91604 18.5435 7.07288L28.7352 1.77811C30.0346 1.10309 31.6914 1.35612 32.6744 2.38002C35.9892 5.83264 38.1166 10.0487 38.8264 14.5724L38.8725 14.8656H21.624C21.9465 14.0496 22.8148 13.4636 23.8334 13.4636C24.265 13.4636 24.6147 13.1497 24.6147 12.7625C24.6147 12.3753 24.265 12.0615 23.8334 12.0615C21.9468 12.0615 20.3688 13.2675 20.0056 14.8656H14.3281C13.8966 14.8656 13.5469 15.1795 13.5469 15.5667C13.5469 15.9539 13.8966 16.2677 14.3281 16.2677H20.0056C20.3688 17.8656 21.9468 19.0719 23.8334 19.0719C25.7197 19.0719 27.2981 17.8656 27.6609 16.2677H38.9375V30.934C38.9375 32.4029 37.6057 33.5979 35.9688 33.5979ZM26.0426 16.2677C25.72 17.0838 24.8518 17.6698 23.8331 17.6698C22.8148 17.6698 21.9465 17.0838 21.624 16.2677H26.0426Z" fill="#A5A5A5"/>
<path d="M11.0469 14.8657C10.8415 14.8657 10.6398 14.9408 10.4945 15.0711C10.3492 15.2015 10.2656 15.3825 10.2656 15.5668C10.2656 15.7511 10.3492 15.9321 10.4945 16.0624C10.6398 16.1928 10.8415 16.2678 11.0469 16.2678C11.2523 16.2678 11.454 16.1928 11.5992 16.0624C11.7445 15.9321 11.8281 15.7511 11.8281 15.5668C11.8281 15.3825 11.7445 15.2015 11.5992 15.0711C11.454 14.9408 11.2523 14.8657 11.0469 14.8657Z" fill="#A5A5A5"/>
</svg>

<svg width="41" height="35" fill="none" xmlns="http://www.w3.org/2000/svg"><path d="M17.695 24.78c-1.977 0-3.586 1.443-3.586 3.217s1.609 3.217 3.586 3.217c1.977 0 3.586-1.443 3.586-3.217s-1.609-3.218-3.586-3.218Zm0 5.032c-1.116 0-2.023-.814-2.023-1.815s.907-1.816 2.023-1.816 2.023.815 2.023 1.816c0 1-.907 1.815-2.023 1.815ZM31.84 22.348c-1.503 0-2.726 1.097-2.726 2.446 0 1.35 1.223 2.447 2.727 2.447 1.503 0 2.726-1.098 2.726-2.447s-1.223-2.446-2.726-2.446Zm0 3.49c-.641 0-1.163-.468-1.163-1.044 0-.576.522-1.044 1.164-1.044.641 0 1.163.469 1.163 1.044 0 .576-.522 1.045-1.163 1.045ZM9.055 18.712c-1.411 0-2.559 1.03-2.559 2.296 0 1.266 1.148 2.297 2.559 2.297 1.41 0 2.559-1.03 2.559-2.297 0-1.266-1.148-2.296-2.559-2.296Zm0 3.19c-.55 0-.996-.4-.996-.894 0-.493.446-.894.996-.894s.996.401.996.894-.447.895-.996.895ZM30.46 8.781c1.43 0 2.592-1.043 2.592-2.325 0-1.282-1.163-2.325-2.592-2.325-1.428 0-2.59 1.043-2.59 2.325 0 1.282 1.162 2.325 2.59 2.325Zm0-3.248c.568 0 1.03.414 1.03.923 0 .51-.462.923-1.03.923-.567 0-1.028-.414-1.028-.923 0-.509.461-.923 1.028-.923Z" fill="#A5A5A5"/><path d="m40.456 14.9-.082-.523c-.752-4.79-3.005-9.255-6.516-12.912-1.473-1.534-3.956-1.913-5.906-.9L17.34 6.078c-.278.145-.43.427-.38.712.097.578-.11 1.146-.57 1.559-.729.654-1.886.713-2.69.136a.854.854 0 0 0-.88-.059L2.762 13.652a4.337 4.337 0 0 0-1.597 1.404.679.679 0 0 0-.236.394A3.713 3.713 0 0 0 .5 17.17v8.31c0 .388.35.701.781.701 1.116 0 2.023.815 2.023 1.816 0 1-.907 1.815-2.023 1.815-.431 0-.781.314-.781.701v.421C.5 33.176 2.533 35 5.031 35h22.626c.431 0 .78-.314.78-.701 0-1.001.909-1.816 2.024-1.816s2.023.815 2.023 1.816c0 .387.35.701.781.701h2.704c2.498 0 4.531-1.824 4.531-4.066V15.466c0-.189-.015-.38-.044-.567Zm-4.487 18.698H33.96c-.358-1.438-1.791-2.517-3.5-2.517s-3.142 1.079-3.5 2.517H5.03c-1.561 0-2.845-1.087-2.96-2.462 1.598-.324 2.796-1.608 2.796-3.14s-1.202-2.819-2.804-3.14v-7.685c0-.313.062-.617.178-.903h5.316c.432 0 .782-.314.782-.701 0-.387-.35-.701-.782-.701H3.543l9.637-5.007c1.383.712 3.154.522 4.314-.519.672-.603 1.046-1.424 1.05-2.267l10.191-5.295c1.3-.675 2.956-.422 3.94.602 3.314 3.453 5.442 7.669 6.151 12.192l.047.294H21.624c.323-.816 1.19-1.402 2.21-1.402.431 0 .78-.314.78-.702 0-.387-.349-.7-.78-.7-1.887 0-3.465 1.206-3.828 2.804h-5.678c-.431 0-.781.314-.781.7 0 .388.35.702.781.702h5.678c.363 1.598 1.94 2.804 3.827 2.804s3.465-1.206 3.828-2.804h11.276v14.666c0 1.469-1.331 2.664-2.968 2.664Zm-9.926-17.33c-.323.816-1.191 1.402-2.21 1.402-1.018 0-1.886-.586-2.209-1.402h4.419Z" fill="#A5A5A5"/><path d="M11.047 14.866a.836.836 0 0 0-.553.205.672.672 0 0 0-.228.496c0 .184.083.365.229.495.145.13.347.206.552.206a.835.835 0 0 0 .552-.206.672.672 0 0 0 .23-.495.672.672 0 0 0-.23-.496.835.835 0 0 0-.552-.205Z" fill="#A5A5A5"/></svg>
